!!!COM: Music21
!!!OTL: reel_Swing-Swang
!!!OMV: reel_Swing-Swang
**kern
*clefG2
*k[f#]
*G:
*M4/4
=1
8dL
8gJ
4g
8dL
8gJ
8bL
8gJ
=
8dL
8gJ
8bL
8gJ
8aL
8gJ
8f#L
8eJ
=
8dL
8gJ
4g
4f#
8ff#L
8eeJ
=
8ddL
8bJ
8aL
8ccJ
8bL
8gJ
8gL
8eJ
=
8dL
8gJ
4g
8dL
8gJ
8bL
8gJ
!!linebreak:original
=
8dL
8gJ
8bL
8gJ
8aL
8gJ
8f#L
8eJ
=
8dL
8gJ
8f#L
8aJ
4g
8ff#L
8eeJ
=
8ddL
8bJ
8aL
8ccJ
8bL
8gJ
8gL
8aJ
=
8bL
8ddJ
8ddL
8bJ
8ddL
8eeJ
4gg
=
8bL
8ddJ
8ddL
8bJ
8ddL
8bJ
4a
!!linebreak:original
=
8bL
8ddJ
8ddL
8bJ
8ddL
8eeJ
8ggL
8eeJ
=
8ddL
8bJ
8aL
8ccJ
8bL
8gJ
8gL
8aJ
=
8bL
8ddJ
4dd
8eeL
8ff#J
8ggL
8ddJ
=
8bL
8ddJ
8ddL
8bJ
8ddL
8bJ
8aL
8bJ
=
4cc
8bL
8ccJ
8aL
8aaJ
8ggL
8eeJ
!!linebreak:original
=
8ddL
8bJ
8aL
8ccJ
8bL
8gJ
4g
=
*-
